X: 28783
T: My Love Is In America
R: reel
M: 4/4
K: Dmajor
F/D/DFG AB=cB|Addc Add2|F/E/EFG Ad=cA|GBAG FDDE|
EFFG AB=cB|Addc defg|afge fdAF|GBAG FDDE|
F/E/EFG AB=cB|Adcd fdAG|F/D/DFG Ad=cA|GBAG FDDE|
EFFG AB=cB|Add/c/c defg|afg/f/e fdAF|GBAG FDDg|
|:fdeg fdec|Addc Addg|fdeg fdAF|GBAG FDDe|
~f2fg fdec|Add/c/c defg|a/g/fge fdAF|1 GBAG FDDg:|2 GBAG FDD2||

